大富翁/house2.svg

<svg height="30.0px" stroke-miterlimit="10" style="fill-rule:nonzero;clip-rule:evenodd;stroke-linecap:round;stroke-linejoin:round;" version="1.1" viewBox="0 0 30 30" width="30.0px" xml:space="preserve" xmlns="http://www.w3.org/2000/svg" xmlns:xlink="http://www.w3.org/1999/xlink">
<defs/>
<path d="M9.22364 12.2727L15 9.38455L20.7764 12.2727L30 12.2727L23.985 2.72727L6.00955 2.72727L0 12.2727L9.22364 12.2727ZM24.5455 15L24.5455 24.5455L21.8182 24.5455L21.8182 15L20.1327 15L15 12.4336L9.86727 15L8.18182 15L8.18182 24.5455L5.45455 24.5455L5.45455 15L2.72727 15L2.72727 24.5455C2.72727 26.0495 3.95045 27.2727 5.45455 27.2727L13.6364 27.2727L13.6364 23.1818C13.6364 22.4291 14.2473 21.8182 15 21.8182C15.7527 21.8182 16.3636 22.4291 16.3636 23.1818L16.3636 27.2727L24.5455 27.2727C26.0495 27.2727 27.2727 26.0495 27.2727 24.5455L27.2727 15L24.5455 15ZM15 19.0909C14.2473 19.0909 13.6364 18.48 13.6364 17.7273C13.6364 16.9745 14.2473 16.3636 15 16.3636C15.7527 16.3636 16.3636 16.9745 16.3636 17.7273C16.3636 18.48 15.7527 19.0909 15 19.0909Z" fill="#000000" fill-rule="nonzero" opacity="1" stroke="none"/>
</svg>

<svg height="30" stroke-miterlimit="10" width="30" xmlns="http://www.w3.org/2000/svg" style="fill:theColor;" viewBox="0 0 30 30"><path d="M9.224 12.273L15 9.385l5.776 2.888H30l-6.015-9.546H6.01L0 12.273h9.224zM24.546 15v9.546h-2.728V15h-1.685L15 12.434 9.867 15H8.182v9.546H5.455V15H2.727v9.546a2.73 2.73 0 002.728 2.727h8.181v-4.091a1.364 1.364 0 012.728 0v4.09h8.181a2.73 2.73 0 002.728-2.726V15h-2.727zM15 19.09a1.364 1.364 0 11.001-2.727A1.364 1.364 0 0115 19.09z"/></svg>
